X: 07010
T: BERTHA'S JIG
C: Bob McQuillen 9 Oct 88
B: Bob's Note Book 7 #10
%R: jig
Z: 2020 John Chambers <jc:trillian.mit.edu>
M: 6/8
L: 1/8
K: D
AG \
| FGA BGB | AFA dcd | ecA fdA | gfg ecA |\
| FGA BGB | AFA dcd | ecA gec | edd d  :|
|: fg \
| afd fdf | aba fef | dfa bgb | afd efg |\
| aba fdf | edB AFA | dfa gec | edd d  :|
%%begintext align
%% For Bertha Braley of
%% E. Concord, N.H. She cooks us the most delicious
%% dinner when we go there to play music with her
%% great fiddler husband, Don - Thanks so much for your
%% hospitality, Bertha - that chicken the last time was a
%% real winner!
%%endtext
